X: 7073
T: Chris Droney's Favourite
R: reel
M: 4/4
K: Edorian
|:BE E2 EAfd|edBe dBAG|FDAD BDAG|F3 A dBAd|
BE E2 EAfd|edBc d3 f|edef dBAF|1 DEED E2 FA:|2 DEED E2 z2||
|:e2 Be edfd|edBe dBAG|FDAD BDAG|F3 A dBAd|
Be e2 e2 de|fdBd edBe|edef dBAF|DEED E2 FA:|

